X: 785
T: Jinnian lieshi ge
%%abc-version 2.0
%%abcx-abcm2ps-target-version 5.9.1 (29 Sep 2008)
%%abc-creator hum2abc beta
%%abcx-conversion-date 2013/10/02 07:52:30
%%abc-edited-by Helmut Schaffrath
%%humdrum-veritas 620512802
%%humdrum-veritas-data 3835673841
%%continueall 1
%%barnumbers 0
L: 1/8
M: 2/4
K: G
B2B B [I:setbarnb 1]| 
A B d e | 
G4 | 
A B A G | 
E4 | 
d e g e/ g/ | 
d4 | 
e g e d | 
c4 | 
B d A B | 
d e d e | 
G E G G | 
A B A G | 
E G F E | 
D4 | 
d d d3/ A/ | 
G A/ G/F2 | 
A B E G | 
A4 | 
d d B A | 
d g e d | 
A B e d | 
B4 | 
A B d e | 
G4 | 
A B A G | 
E4 |]  



